icons/global/server-settings/delete-server.svg

<svg xmlns="http://www.w3.org/2000/svg" viewBox="0 0 24 24">
  <path fill="B9BBBE" d="M15 3.999V2H9v1.999H3v2h18v-2h-6ZM5 6.999v12c0 1.102.897 2 2 2h10c1.103 0 2-.898 2-2v-12H5ZM11 17H9v-6h2v6Zm4 0h-2v-6h2v6Z"/>
</svg>

<svg width="24" height="24" viewBox="0 0 24 24" fill="none" xmlns="http://www.w3.org/2000/svg">
<path d="M15 3.999V2H9V3.999H3V5.999H21V3.999H15V3.999ZM5 6.999V18.999C5 20.101 5.897 20.999 7 20.999H17C18.103 20.999 19 20.101 19 18.999V6.999H5V6.999ZM11 17H9V11H11V17ZM15 17H13V11H15V17Z" fill="black"/>
</svg>
